outputs/icons/action/clipboard_round.svg

<svg xmlns="http://www.w3.org/2000/svg" width="1200" height="1200" fill="none"><g clip-path="url(#a)"><path fill="#000" d="M950 150H741C720 92 665 50 600 50S480 92 459 150H250c-55 0-100 45-100 100v700c0 55 45 100 100 100h700c55 0 100-45 100-100V250c0-55-45-100-100-100m-350 0c27.5 0 50 22.5 50 50s-22.5 50-50 50-50-22.5-50-50 22.5-50 50-50m50 700H400c-27.5 0-50-22.5-50-50s22.5-50 50-50h250c27.5 0 50 22.5 50 50s-22.5 50-50 50m150-200H400c-27.5 0-50-22.5-50-50s22.5-50 50-50h400c27.5 0 50 22.5 50 50s-22.5 50-50 50m0-200H400c-27.5 0-50-22.5-50-50s22.5-50 50-50h400c27.5 0 50 22.5 50 50s-22.5 50-50 50"/></g><defs><clipPath id="a"><path fill="#fff" d="M0 0h1200v1200H0z"/></clipPath></defs></svg>

<svg width="1200" height="1200" viewBox="0 0 1200 1200" fill="none" xmlns="http://www.w3.org/2000/svg"><g clip-path="url(#clip0_223_1899)"><path d="M950 150H741C720 92 665 50 600 50C535 50 480 92 459 150H250C195 150 150 195 150 250V950C150 1005 195 1050 250 1050H950C1005 1050 1050 1005 1050 950V250C1050 195 1005 150 950 150ZM600 150C627.5 150 650 172.5 650 200C650 227.5 627.5 250 600 250C572.5 250 550 227.5 550 200C550 172.5 572.5 150 600 150ZM650 850H400C372.5 850 350 827.5 350 800C350 772.5 372.5 750 400 750H650C677.5 750 700 772.5 700 800C700 827.5 677.5 850 650 850ZM800 650H400C372.5 650 350 627.5 350 600C350 572.5 372.5 550 400 550H800C827.5 550 850 572.5 850 600C850 627.5 827.5 650 800 650ZM800 450H400C372.5 450 350 427.5 350 400C350 372.5 372.5 350 400 350H800C827.5 350 850 372.5 850 400C850 427.5 827.5 450 800 450Z" fill="black"/></g><defs><clipPath id="clip0_223_1899"><path width="24" fill="white" d="M0 0H1200V1200H0V0z"/></clipPath></defs></svg>
